logos/vaddy.svg

<svg preserveAspectRatio="xMidYMid" viewBox="0 0 256 254" xmlns="http://www.w3.org/2000/svg">
  <defs>
    <linearGradient id="vaddy_svg__a" x1="50%" x2="50%" y1="-1.02%" y2="100%">
      <stop offset="0%" stop-color="#8FC53B"/>
      <stop offset="100%" stop-color="#48A23C"/>
    </linearGradient>
  </defs>
  <path fill="url(#vaddy_svg__a)" d="M189.574 13.209c25.131 18.66 41.421 48.556 41.421 82.263 0 56.554-45.846 102.4-102.4 102.4-56.554 0-102.4-45.846-102.4-102.4 0-35.134 17.702-66.125 44.665-84.569C28.858 31.899 0 75.287 0 125.437c0 70.693 57.308 128.001 128 128.001 70.692 0 128-57.308 128-128.001 0-48.369-26.837-90.461-66.426-112.228ZM81.75 179.819c-18.812-13.967-31.006-36.346-31.006-61.576 0-42.333 34.318-76.65 76.651-76.65 42.332 0 76.65 34.317 76.65 76.65 0 26.299-13.251 49.497-33.433 63.302 31.439-15.716 53.041-48.193 53.041-85.733C223.653 42.897 180.756 0 127.84 0 74.924 0 32.028 42.897 32.028 95.812c0 36.207 20.088 67.714 49.722 84.007Zm78.2-80.775c0 17.645-14.304 31.95-31.95 31.95s-31.95-14.305-31.95-31.95c0-17.646 14.304-31.951 31.95-31.951s31.95 14.305 31.95 31.951Z"/>
</svg>

<?xml version="1.0" encoding="UTF-8" standalone="no"?>
<svg width="256px" height="254px" viewBox="0 0 256 254" version="1.1" xmlns="http://www.w3.org/2000/svg" xmlns:xlink="http://www.w3.org/1999/xlink" preserveAspectRatio="xMidYMid">
    <defs>
        <linearGradient x1="50%" y1="-1.01957259%" x2="50%" y2="100%" id="linearGradient-1">
            <stop stop-color="#8FC53B" offset="0%"></stop>
            <stop stop-color="#48A23C" offset="100%"></stop>
        </linearGradient>
    </defs>
    <g>
        <path d="M189.574,13.209 C214.705,31.869 230.995,61.765 230.995,95.472 C230.995,152.026 185.149,197.872 128.595,197.872 C72.041,197.872 26.195,152.026 26.195,95.472 C26.195,60.338 43.897,29.347 70.86,10.903 C28.858,31.899 0,75.287 0,125.437 C0,196.13 57.308,253.438 128,253.438 C198.692,253.438 256,196.13 256,125.437 C256,77.068 229.163,34.976 189.574,13.209 Z M81.75,179.819 C62.938,165.852 50.744,143.473 50.744,118.243 C50.744,75.91 85.062,41.593 127.395,41.593 C169.727,41.593 204.045,75.91 204.045,118.243 C204.045,144.542 190.794,167.74 170.612,181.545 C202.051,165.829 223.653,133.352 223.653,95.812 C223.653,42.897 180.756,0 127.84,0 C74.924,0 32.028,42.897 32.028,95.812 C32.028,132.019 52.116,163.526 81.75,179.819 Z M159.95,99.044 C159.95,116.689 145.646,130.994 128,130.994 C110.354,130.994 96.05,116.689 96.05,99.044 C96.05,81.398 110.354,67.093 128,67.093 C145.646,67.093 159.95,81.398 159.95,99.044 Z" fill="url(#linearGradient-1)"></path>
    </g>
</svg>
